src/ibn_virtual_classroom.svg

<?xml version="1.0" encoding="UTF-8"?>
<svg width="60px" height="60px" viewBox="0 0 60 60" version="1.1" xmlns="http://www.w3.org/2000/svg" xmlns:xlink="http://www.w3.org/1999/xlink">
    <title>ibn_virtual_classroom</title>
    <g id="Final" stroke="none" stroke-width="1" fill="none" fill-rule="evenodd">
        <g id="Bongo-Icons" transform="translate(-283.000000, -155.000000)">
            <g id="ibn_virtual_classroom" transform="translate(283.000000, 166.000000)">
                <g id="Stand" transform="translate(6.666667, 31.000000)" stroke="#494C4E" stroke-width="2">
                    <path d="M23.3333333,1.24928557 L41.5084386,12.0712535 C41.6268337,12.1422906 41.7052268,12.2545916 41.736262,12.3787322 C41.7672971,12.5028727 41.7509742,12.6388528 41.6799372,12.7572479 C41.5895756,12.9078506 41.4268221,13 41.2511907,13 L41.2511907,13 L5.41547595,13 C5.27740476,13 5.15240476,12.9440356 5.06192256,12.8535534 C4.97144035,12.7630712 4.91547595,12.6380712 4.91547595,12.5 C4.91547595,12.3243686 5.00762536,12.1616152 5.15822807,12.0712535 L5.15822807,12.0712535 L23.0760855,1.32053911 C23.1552561,1.27303675 23.2442947,1.24928557 23.3333333,1.24928557 L23.3333333,1.24928557 Z" id="Triangle" fill="#9EA5A9"></path>
                    <path d="M23.3333333,1.24928557 L41.5084386,12.0712535 C41.6268337,12.1422906 41.7052268,12.2545916 41.736262,12.3787322 C41.7672971,12.5028727 41.7509742,12.6388528 41.6799372,12.7572479 C41.5895756,12.9078506 41.4268221,13 41.2511907,13 L41.2511907,13 L5.41547595,13 C5.27740476,13 5.15240476,12.9440356 5.06192256,12.8535534 C4.97144035,12.7630712 4.91547595,12.6380712 4.91547595,12.5 C4.91547595,12.3243686 5.00762536,12.1616152 5.15822807,12.0712535 L5.15822807,12.0712535 L23.0760855,1.32053911 C23.1552561,1.27303675 23.2442947,1.24928557 23.3333333,1.24928557 L23.3333333,1.24928557 Z" id="Triangle"></path>
                </g>
                <polygon id="Shadow" fill="#000000" fill-rule="nonzero" opacity="0.15" points="20 37 40 37 43.3267269 39 16.6707969 39"></polygon>
                <rect id="Rectangle" fill="#D66DAC" x="2" y="2" width="56" height="33" rx="1"></rect>
                <g id="Person" transform="translate(13.999992, 4.994014)" fill-rule="nonzero">
                    <path d="M31.0000084,31.0059864 C30.9758435,22.7317452 24.2742495,16.0301513 16.0000084,16.0059864 C7.72576728,16.0301513 1.02417335,22.7317452 1.00000842,31.0059864 L31.0000084,31.0059864 Z" id="Path" fill="#70D070"></path>
                    <path d="M16.0000084,16.0059864 C15.4940084,16.0059864 14.9940084,16.0329864 14.5000084,16.0819864 C22.152871,16.8752562 27.9755849,23.3121586 28.0000084,31.0059864 L31.0000084,31.0059864 C30.9758435,22.7317452 24.2742495,16.0301513 16.0000084,16.0059864 L16.0000084,16.0059864 Z" id="Path" fill="#FFFFFF" opacity="0.4"></path>
                    <circle id="Oval" fill="#70D070" cx="16.0000084" cy="8.50598636" r="7.5"></circle>
                    <path d="M16.0000084,1.00598607 C15.4962577,1.00598607 14.9937562,1.05609647 14.5000084,1.15598636 C17.9954944,1.86577506 20.5075273,4.93916395 20.5075273,8.50598607 C20.5075273,12.0728088 17.9954944,15.1461977 14.5000084,15.8559864 C17.3011795,16.424781 20.1821243,15.3519224 21.9289421,13.0894648 C23.67576,10.8270073 23.9847158,7.76834508 22.7256294,5.20226087 C21.466543,2.63617667 18.8583433,1.00885899 16.0000084,1.00598607 L16.0000084,1.00598607 Z" id="Path" fill="#FFFFFF" opacity="0.4"></path>
                    <path d="M20.5400084,15.6859864 C23.7392697,13.6647403 25.2170009,9.77191084 24.1648992,6.13683307 C23.1127975,2.5017553 19.7842796,-3.55271368e-14 16.0000042,-3.55271368e-14 C12.2157372,-3.55271368e-14 8.88721931,2.5017553 7.8351176,6.13683307 C6.78301589,9.77191084 8.26074711,13.6647403 11.4600084,15.6859864 C4.68671796,17.7169278 0.0354503892,23.9348527 4.18514893e-06,31.0059864 C-0.000761170691,31.2716404 0.103473946,31.5268368 0.290008417,31.7159864 C0.480691998,31.9001821 0.734896342,32.0040121 1.00000419,32.0059864 L31.0000042,32.0059864 C31.2651205,32.0040121 31.5193248,31.9001821 31.7100084,31.7159864 C31.8965429,31.5268368 32.000778,31.2716404 32.0000042,31.0059864 C31.9645664,23.9348527 27.3132989,17.7169278 20.5400084,15.6859864 Z M9.50000842,8.50598636 C9.50000842,4.91613549 12.4101575,2.00598636 16.0000084,2.00598636 C19.5898593,2.00598636 22.5000084,4.91613549 22.5000084,8.50598636 C22.5000084,12.0958372 19.5898593,15.0059864 16.0000084,15.0059864 C12.4131243,14.998834 9.50716075,12.0928705 9.50000842,8.50598636 L9.50000842,8.50598636 Z M2.04000842,30.0059864 C2.5930859,22.7051466 8.67824932,17.0635307 16.0000084,17.0635307 C23.3217675,17.0635307 29.4069309,22.7051466 29.9600084,30.0059864 L2.04000842,30.0059864 Z" id="Shape" fill="#494C4E"></path>
                </g>
                <path d="M57,0 C58.6568542,-3.04359188e-16 60,1.34314575 60,3 L60,34 C60,35.6568542 58.6568542,37 57,37 L3,37 C1.34314575,37 2.02906125e-16,35.6568542 0,34 L0,3 C-2.02906125e-16,1.34314575 1.34314575,3.04359188e-16 3,0 L57,0 Z M57,2 L3,2 C2.44771525,2 2,2.44771525 2,3 L2,3 L2,34 C2,34.5522847 2.44771525,35 3,35 L3,35 L57,35 C57.5522847,35 58,34.5522847 58,34 L58,34 L58,3 C58,2.44771525 57.5522847,2 57,2 L57,2 Z" id="Combined-Shape" fill="#494C4E"></path>
            </g>
        </g>
    </g>
</svg>

<svg width="60" height="60" viewBox="0 0 60 60" xmlns="http://www.w3.org/2000/svg">
  <g transform="translate(0 11)" fill="none" fill-rule="evenodd">
    <g stroke="#494C4E" stroke-width="2">
      <path d="M30 32.25L48.175 43.07a.498.498 0 01.172.686.5.5 0 01-.43.243h0-35.835a.498.498 0 01-.5-.5.5.5 0 01.243-.429h0l17.918-10.75a.5.5 0 01.257-.072h0z" fill="#9EA5A9"/>
      <path d="M30 32.25L48.175 43.07a.498.498 0 01.172.686.5.5 0 01-.43.243h0-35.835a.498.498 0 01-.5-.5.5.5 0 01.243-.429h0l17.918-10.75a.5.5 0 01.257-.072h0z"/>
    </g>
    <path fill="#000" fill-rule="nonzero" opacity=".15" d="M20 37h20l3.327 2H16.67z"/>
    <rect fill="#D66DAC" x="2" y="2" width="56" height="33" rx="1"/>
    <g transform="translate(14 4.994)" fill-rule="nonzero">
      <path d="M31 31.006c-.024-8.274-6.726-14.976-15-15-8.274.024-14.976 6.726-15 15h30z" fill="#70D070"/>
      <path d="M16 16.006c-.506 0-1.006.027-1.5.076 7.653.793 13.476 7.23 13.5 14.924h3c-.024-8.274-6.726-14.976-15-15z" fill="#FFF" opacity=".4"/>
      <circle fill="#70D070" cx="16" cy="8.506" r="7.5"/>
      <path d="M16 1.006c-.504 0-1.006.05-1.5.15a7.5 7.5 0 010 14.7A7.5 7.5 0 1016 1.006z" fill="#FFF" opacity=".4"/>
      <path d="M20.54 15.686a8.5 8.5 0 10-9.08 0A16.078 16.078 0 000 31.006c0 .266.103.52.29.71.19.184.445.288.71.29h30c.265-.002.52-.106.71-.29.187-.19.29-.444.29-.71a16.078 16.078 0 00-11.46-15.32zM9.5 8.506a6.5 6.5 0 116.5 6.5 6.513 6.513 0 01-6.5-6.5zm-7.46 21.5c.553-7.3 6.638-12.942 13.96-12.942 7.322 0 13.407 5.641 13.96 12.942H2.04z" fill="#494C4E"/>
    </g>
    <path d="M57 0a3 3 0 013 3v31a3 3 0 01-3 3H3a3 3 0 01-3-3V3a3 3 0 013-3h54zm0 2H3a1 1 0 00-1 1v31a1 1 0 001 1h54a1 1 0 001-1V3a1 1 0 00-1-1z" fill="#494C4E"/>
  </g>
</svg>
